client/src/assets/logout.svg

<svg width="15" height="15" viewBox="0 0 15 15" fill="none" xmlns="http://www.w3.org/2000/svg">
<g clip-path="url(#clip0)">
<path d="M7.4751 1.27076H1.86876C1.5249 1.27076 1.24585 1.54984 1.24585 1.89367V13.1063C1.24585 13.4502 1.52493 13.7292 1.86876 13.7292H7.4751C7.81957 13.7292 8.09801 14.0077 8.09801 14.3521C8.09801 14.6966 7.81957 14.9751 7.4751 14.9751H1.86876C0.838447 14.9751 0 14.1366 0 13.1063V1.8937C0 0.863385 0.838447 0.0249386 1.86876 0.0249386H7.4751C7.81957 0.0249386 8.09801 0.303376 8.09801 0.647848C8.09801 0.992321 7.81957 1.27076 7.4751 1.27076Z" fill="white" stroke="white" stroke-width="0.5"/>
<path d="M14.8144 7.94352L11.027 11.6811C10.7828 11.9228 10.3879 11.9196 10.1462 11.6748C9.90448 11.43 9.90697 11.0357 10.1524 10.794L12.859 8.12294H5.60631C5.26184 8.12294 4.9834 7.8445 4.9834 7.50003C4.9834 7.15555 5.26184 6.87709 5.60631 6.87709H12.859L10.1524 4.206C9.907 3.9643 9.90512 3.56999 10.1462 3.32519C10.2683 3.20185 10.429 3.13956 10.5897 3.13956C10.7479 3.13956 10.9061 3.19936 11.027 3.31898L14.8144 7.05653C14.9327 7.17363 15 7.33312 15 7.50006C15 7.66693 14.9333 7.82578 14.8144 7.94352Z" fill="white" stroke="white" stroke-width="0.5"/>
</g>
<defs>
<clipPath id="clip0">
<rect width="15" height="15" fill="white" transform="matrix(1 0 0 -1 0 15)"/>
</clipPath>
</defs>
</svg>

<svg width="15" height="15" fill="none" xmlns="http://www.w3.org/2000/svg"><g clip-path="url(#clip0)" fill="#fff" stroke="#fff" stroke-width=".5"><path d="M7.475 1.27H1.87a.623.623 0 00-.623.624v11.212c0 .344.279.623.623.623h5.606a.622.622 0 110 1.246H1.87A1.871 1.871 0 010 13.106V1.894C0 .864.838.024 1.869.024h5.606a.622.622 0 110 1.247z"/><path d="M14.814 7.944l-3.787 3.737a.623.623 0 11-.875-.887l2.707-2.671H5.606a.622.622 0 110-1.246h7.253l-2.707-2.671a.623.623 0 11.875-.887l3.787 3.738a.624.624 0 010 .887z"/></g><defs><clipPath id="clip0"><path fill="#fff" transform="matrix(1 0 0 -1 0 15)" d="M0 0h15v15H0z"/></clipPath></defs></svg>
